X:14
T:Thomas Clancy's (1)
R:Reel
S:Thomas Clancy (Mouth organ)
D:From RTE feature on the Clonmel Fleadh
H:Played in 'C' but set in 'D' here
M:4/4
Z:Bernie Stocks
K:D
|: A2FD EFDE | D2FA BcdB | A2FD EFDE | FABc d3B |
A2FD EFDE | D2FA BcdB | A2FD EFDE |1 DFEF D3F :|2 DFEF D2(3ABc ||
d2Ad BdAB | d2fd edBc | d2Ad BdAB | dfec d3e |
(3fgfdf (3efece | d2dc Bcde | fdec dcBA | Bdec d3B :||
<end>
<start>
